X:211
T:Galope Carmen
C:Laurence Beaudry
N: Laurence Beaudry, Reproduced with permission
Z:robin.beech@mcgill.ca
R:reel
N:January, 2008
M:2/4
L:1/8
K:C
cdcA G2E2 | C2D2 E3G | CEGc e2g2 | fedc BcdB | AGGA Bcde | 
f3a gafg |1 efde cdeB | A3G E2G2 :|2 efde ceBd | c3G E2A2 :|
G^FGA GEGc | A^GAB A2dc | BGBd fdAB | cage agec |
G^FGA GCEG | A^GAB A2FA |1 BABc BGBe | cBcd c3A :|2 BcBA G2ba | gfAB [A4E4] ||
